X: 3163
T: IN THE GLOAMIN
Q: "Strathspey."
R: Strathspey.
%R: strathspey
B: James Kerr "Merry Melodies" v.3 p.19 #163
Z: 2016 John Chambers <jc:trillian.mit.edu>
N: The 2nd strain has initial repeat but no final repeat; fixed.
M: C
L: 1/8
K: F
|:\
vA<uc vc>uf vd<vf uc2 | A<c c>d B>A G<B |\
A<c c>f d>f c2 | B>GA>F E<G G>B ::\
(A<c) f>a g>a f2 | A<c f>c B>A G<B |\
(A<c) f>a g>af>c | (3def (3cBA A<G G<c :|

%%sep 1 1 500
%%sep 1 1 500

